src/assets/ikoner/toolbox.svg

<svg width="24" height="24" viewBox="0 0 24 24" fill="none" xmlns="http://www.w3.org/2000/svg">
<path fill-rule="evenodd" clip-rule="evenodd" d="M7.5 9C7.5 11.4853 9.51472 13.5 12 13.5C14.4853 13.5 16.5 11.4853 16.5 9C16.5 6.51472 14.4853 4.5 12 4.5C9.51472 4.5 7.5 6.51472 7.5 9ZM15.5 9C15.5 10.933 13.933 12.5 12 12.5C10.067 12.5 8.5 10.933 8.5 9C8.5 7.067 10.067 5.5 12 5.5C13.933 5.5 15.5 7.067 15.5 9Z" fill="#3E3832"/>
<path fill-rule="evenodd" clip-rule="evenodd" d="M0 15V23.5C0 23.776 0.244364 24 0.545455 24H23.4545C23.7556 24 24 23.776 24 23.5V15H0Z" fill="#88392B"/>
<path fill-rule="evenodd" clip-rule="evenodd" d="M0 15L0 9.5C0 9.224 0.244364 9 0.545455 9H23.4545C23.7556 9 24 9.224 24 9.5V15H0Z" fill="#573830"/>
<rect x="10" y="14" width="4" height="3" rx="1" fill="#FFD399"/>
</svg>

<svg width="24" height="24" viewBox="0 0 24 24" fill="none" xmlns="http://www.w3.org/2000/svg"><path fill-rule="evenodd" clip-rule="evenodd" d="M7.5 9a4.5 4.5 0 109 0 4.5 4.5 0 00-9 0zm8 0a3.5 3.5 0 11-7 0 3.5 3.5 0 017 0z" fill="#3E3832"/><path fill-rule="evenodd" clip-rule="evenodd" d="M0 15v8.5c0 .276.244.5.545.5h22.91c.3 0 .545-.224.545-.5V15H0z" fill="#88392B"/><path fill-rule="evenodd" clip-rule="evenodd" d="M0 15V9.5c0-.276.244-.5.545-.5h22.91c.3 0 .545.224.545.5V15H0z" fill="#573830"/><rect x="10" y="14" width="4" height="3" rx="1" fill="#FFD399"/></svg>
